X: 1
T: Tralee Gaol
T: the Green Cockade, O'Neill's March
N: The English tune Barrack Hill is the in jig time version.
C: trad. Ireland, Scotland
R: march, polka
Z: 2020 John Chambers <jc:trillian.mit.edu>
S: https://www.facebook.com/groups/Fiddletuneoftheday/ 2020-10-01
S: https://www.facebook.com/groups/Fiddletuneoftheday/photos/
M: 2/4
L: 1/16
K: Ador
|:\
"Am"e2A2 A2Bd | e3d "G"B2d2 | "Am"e2A2 A2BA | "Em"G3A B2d2 |\
"Am"e2A2 A2Bd | efed "G"B2d2 | "Em"e2d2 g2B2 | "Am"{d}B2A2 A4 :|
|:\
e2a2 a2ga | "Em"b3a g2e2 | "G"edBd g2d2 | dcBA "Em"GABG |\
e2a2 a2ga | "Em"b3a g2e2 | "G"d2B2 g2B2 | "Am"{d}B2A2 A4 :|
